X:1
T:Untreue
T:Friedrich Silcher
T:Untreue
T:CPDL   —   Creative Commons Attribution Non Commercial 3.0
C:Friedrich Silcher
Z:CPDL   —   Creative Commons Attribution Non Commercial 3.0
%%score [ ( 1 2 3 4 ) ( 5 6 7 8 ) ]
L:1/8
Q:1/4=90
M:4/4
K:G
V:1 treble-8 nm="Tenor"
V:2 treble-8 
V:3 treble-8 
V:4 treble-8 
V:5 bass nm="Bass"
V:6 bass 
V:7 bass 
V:8 bass 
V:1
"^In ruhiger Bewegung" GB | d2 dd dedc | c2 BB (d2 c) | B | B2 AA e2 dc | c2 B>B B2 z | d | %7
w: 1.  Was *|hab ich denn mei- * nem Feins-|lieb- chen ge- tan? _|Es|geht ja vor- ü- ber und|schaut mich nicht an;|es|
w: 2.  Das *|macht ihr _ stol- * zer, hoch-|mü- ti- ger Sinn, _|dass|ich ihr nicht schön und nicht|reich ge- nug bin;|und|
w: 3.  Die *|stil- stil- len Was- * ser, sie|* kei- nen Grund, _|lass|ab von der Lie- be, sie|* nicht ge- sund;|die|
 d2 A>d d2 ff | (fe a>)g (f>e d) | d | g2 f>e d>e"^dim." dc | B2 AA G2 |] %12
w: schlägt sei- ne Äug- lein wohl|un- * * ter sich, _ _|und|hat ei- nen an- de- ren viel|lieb- ber als mich.|
w: * auch nicht reich, _ so|bin ich doch so jung, so jung,|herz-|al- liebs- tes Schät- ze- le, was|* mich denn d'rum?|
w: * ho- hen Ber- ge, das|tie- fe, tie- fe Tal, _ _|jetzt|seh ich mein Schät- ze- le zum|* letz- ten Mal.|
V:2
 G2 | B2 BB BcBA | A2 GG (B2 A) | G | G2 FF c2 BA | A2 G>G G2 x | A | A2 A>A A2 dd | %8
 (d^c f>)e (d>c d) | A | d2 d>=c B>c BA | G2 FF G2 |] %12
V:3
 x2 | x d x6 | c>B x5 | x | x8 | cB x5 | x | dA x6 | x7 | x | x g x6 | B>B x4 |] %12
w: ||||||||||||
w: |||||||bin ich|||ler \-|kümm'r ich|
w: ||ha- ben|||ist dir||ho- hen,||||al- ler \-|
V:4
 x2 | x B x6 | A>G x5 | x | x8 | AG x5 | x | AA x6 | x7 | x | x d x6 | G>G x4 |] %12
w: ||||||||||||
w: ||||||||||||
w: |len,|||||||||||
V:5
 G,2 | G,2 G,G, F,2 F,D, | D,2 D,D, G,3 | D, | D,2 D,D, F,2 F,F, | D,2 D,>D, D,2 z | F, | %7
 F,2 F,>F, F,2 A,A, | A,7/2 A,/ (A,>G, F,) | F, | G,2 G,>G, G,>G,"^dim." G,E, | D,2 D,D, B,,2 |] %12
V:6
 G,2 | G,2 G,G, D,2 D,D, | G,,2 G,,G,, G,,3 | G,, | D,2 D,D, D,2 D,D, | G,,2 G,,>G,, G,,2 x | D, | %7
 D,2 D,>D, D,2 D,D, | A,,7/2 ^C,/ D,3 | =C, | B,,2 C,>C, G,,>G,, G,,C, | D,2 D,D, B,,2 |] %12
V:7
 x2 | x G, x6 | D,>D, x5 | x | x8 | D,D, x5 | x | F,F, x6 | A,A,A,3/2 x7/2 | x | x G, x6 | %11
 D,>D, x4 |] %12
V:8
 x2 | x G, x6 | G,,>G,, x5 | x | x8 | G,,G,, x5 | x | D,D, x6 | A,,A,, A,,3/2 x/ D,>D, D, | x | %10
 x B,, x6 | D,>D, x4 |] %12

